src/main/resources/icons/CFMLIcons/icons/cfunit.svg

<svg xmlns="http://www.w3.org/2000/svg" xmlns:xlink="http://www.w3.org/1999/xlink" width="16" height="16" viewBox="0 0 16 16">
  <defs>
    <polygon id="cfunit-a" points="0 0 12 0 12 8 10 6 9 6 3 12 0 12"/>
  </defs>
  <g fill="none" fill-rule="evenodd">
    <polygon fill="#62B543" points="13.75 10.75 17.25 14.25 10.25 14.25" transform="rotate(90 13.75 12.5)"/>
    <polygon fill="#F26522" points="9.25 10.75 12.75 14.25 5.75 14.25" transform="rotate(-90 9.25 12.5)"/>
    <g transform="translate(2 2)">
      <mask id="cfunit-b" fill="#fff">
        <use xlink:href="#cfunit-a"/>
      </mask>
      <use fill="#ECECEC" xlink:href="#cfunit-a"/>
      <g mask="url(#cfunit-b)">
        <rect width="12" height="12" fill="#000E35"/>
        <rect width="10" height="10" x="1" y="1" fill="#CADAFF"/>
        <path fill="#000E35" d="M6.16480501,4.03101103 C5.765624,3.93419866 5.49497475,3.88579248 5.35285724,3.88579248 C5.04129193,3.88579248 4.73159481,3.90529169 4.5047534,4.03101103 C4.27791199,4.15673036 4.18514952,4.25190082 4.04303201,4.46234405 C3.9009145,4.67278728 3.79569446,4.91192374 3.72736874,5.17976058 C3.65904301,5.44759742 3.62488066,5.72089623 3.62488066,5.99966518 C3.62488066,6.27843414 3.65904301,6.55173295 3.72736874,6.81956979 C3.79569446,7.08740663 3.9009145,7.32654309 4.04303201,7.53698632 C4.18514952,7.74742955 4.27791199,7.8318223 4.5047534,7.95754164 C4.73159481,8.08326097 4.99700387,8.12143248 5.30856918,8.12143248 C5.4616188,8.12143248 5.72058093,8.09469754 6.08545557,8.04122765 L6.08545557,8.82423655 C5.69755201,8.94141218 5.38516897,9 5.14830645,9 C4.71102181,9 4.3901267,8.90684258 4.04303201,8.74559387 C3.69593733,8.58434516 3.58661965,8.4429823 3.3461131,8.16421334 C3.10560654,7.88544438 2.92112985,7.56021881 2.79267749,7.18852686 C2.66422512,6.81683492 2.5999999,6.42055165 2.5999999,5.99966518 C2.5999999,5.58424477 2.66422512,5.1906945 2.79267749,4.81900255 C2.92112985,4.44731061 3.10560654,4.12208503 3.3461131,3.84331607 C3.58661965,3.56454711 3.88041586,3.34317508 4.22751055,3.17919334 C4.57460523,3.0152116 4.96678901,3 5.40407366,3 C5.62271598,3 5.87629309,3.05973111 6.16480501,3.17919334 L6.16480501,4.03101103 Z M6.5,4.78217203 L7.09989295,4.78217203 L7.09989295,4.33122446 C7.09989295,4.06338761 7.13268881,3.84611506 7.1982815,3.67940029 C7.2638742,3.51268552 7.35132982,3.38423509 7.46065098,3.29404513 C7.56997214,3.20385517 7.69432309,3.14372944 7.83370757,3.11366612 C7.97309205,3.0836028 8.11930691,3.06857136 8.27235654,3.06857136 C8.57298973,3.06857136 8.59485204,3.07540371 8.73150349,3.11366612 L8.73150349,3.85460977 C8.67137685,3.83821159 8.5608572,3.83456129 8.46793421,3.83456129 C8.34221488,3.83456129 8.2453241,3.86362067 8.15513415,3.92374731 C8.06494419,3.98387395 8,4.1020276 8,4.27694146 L8,4.78217203 L9,4.78217203 L9,5.58157874 L8,5.58157874 L8,9 L7.09989295,9 L7.09989295,5.58157874 L6.5,5.58157874 L6.5,4.78217203 Z"/>
      </g>
    </g>
    <polygon fill="#F26522" points="9.25 10.75 12.75 14.25 5.75 14.25" transform="rotate(-90 9.25 12.5)"/>
  </g>
</svg>

<svg xmlns="http://www.w3.org/2000/svg" xmlns:xlink="http://www.w3.org/1999/xlink" width="16" height="16" viewBox="0 0 16 16"><rect id="frame" width="16" height="16" fill="none"/><defs><path id="a" d="M0 0h12v8l-2-2H9l-6 6H0z"/></defs><g fill="none" fill-rule="evenodd"><path fill="#62B543" d="M15.5 12.5L12 16V9z"/><path fill="#F26522" d="M7.5 12.5L11 9v7z"/><g transform="translate(2 2)"><mask id="b" fill="#fff"><use xlink:href="#a"/></mask><use fill="#ECECEC" xlink:href="#a"/><g mask="url(#b)"><path fill="#000E35" d="M0 0h12v12H0z"/><path fill="#CADAFF" d="M1 1h10v10H1z"/><path fill="#000E35" d="M6.165 4.031c-.4-.097-.67-.145-.812-.145-.312 0-.621.02-.848.145-.227.126-.32.22-.462.431-.142.21-.247.45-.316.718a3.304 3.304 0 0 0 0 1.64c.069.267.174.507.316.717.142.21.235.295.462.42.227.126.492.164.804.164.153 0 .412-.026.776-.08v.783c-.387.117-.7.176-.937.176-.437 0-.758-.093-1.105-.254-.347-.162-.456-.303-.697-.582a2.953 2.953 0 0 1-.553-.975 3.615 3.615 0 0 1-.193-1.19c0-.415.064-.808.193-1.18.128-.372.313-.697.553-.976.24-.278.534-.5.882-.664C4.575 3.015 4.967 3 5.404 3c.219 0 .472.06.76.18v.851zm.335.751h.6v-.45c0-.269.033-.486.098-.653a.926.926 0 0 1 .263-.385c.109-.09.233-.15.373-.18.14-.03.285-.045.438-.045.301 0 .323.006.46.045v.74a1.23 1.23 0 0 0-.264-.02.534.534 0 0 0-.313.09c-.09.06-.155.178-.155.353v.505h1v.8H8V9h-.9V5.582h-.6v-.8z"/></g></g><path fill="#F26522" d="M7.5 12.5L11 9v7z"/></g></svg>
